apps/24/system-users.svg

<?xml version="1.0" encoding="UTF-8" standalone="no"?>
<svg
   xmlns:dc="http://purl.org/dc/elements/1.1/"
   xmlns:cc="http://creativecommons.org/ns#"
   xmlns:rdf="http://www.w3.org/1999/02/22-rdf-syntax-ns#"
   xmlns:svg="http://www.w3.org/2000/svg"
   xmlns="http://www.w3.org/2000/svg"
   xmlns:xlink="http://www.w3.org/1999/xlink"
   version="1.0"
   width="24"
   height="24"
   id="svg11300">
  <metadata
     id="metadata56">
    <rdf:RDF>
      <cc:Work
         rdf:about="">
        <dc:format>image/svg+xml</dc:format>
        <dc:type
           rdf:resource="http://purl.org/dc/dcmitype/StillImage" />
      </cc:Work>
    </rdf:RDF>
  </metadata>
  <defs
     id="defs3">
    <linearGradient
       id="linearGradient3785">
      <stop
         id="stop3787"
         style="stop-color:#b8b8b8;stop-opacity:1"
         offset="0" />
      <stop
         id="stop3789"
         style="stop-color:#878787;stop-opacity:1"
         offset="1" />
    </linearGradient>
    <linearGradient
       id="linearGradient6954">
      <stop
         id="stop6960"
         style="stop-color:#f5f5f5;stop-opacity:1"
         offset="0" />
      <stop
         id="stop6962"
         style="stop-color:#d2d2d2;stop-opacity:1"
         offset="1" />
    </linearGradient>
    <linearGradient
       id="linearGradient3341">
      <stop
         id="stop3343"
         style="stop-color:#ffffff;stop-opacity:1"
         offset="0" />
      <stop
         id="stop3345"
         style="stop-color:#ffffff;stop-opacity:0"
         offset="1" />
    </linearGradient>
    <linearGradient
       id="linearGradient5060">
      <stop
         id="stop5062"
         style="stop-color:#000000;stop-opacity:1"
         offset="0" />
      <stop
         id="stop5064"
         style="stop-color:#000000;stop-opacity:0"
         offset="1" />
    </linearGradient>
    <radialGradient
       cx="30"
       cy="33.1875"
       r="4.6875"
       fx="30"
       fy="33.1875"
       id="radialGradient2922"
       xlink:href="#linearGradient5060"
       gradientUnits="userSpaceOnUse"
       gradientTransform="matrix(0.81491924,-3.8844793e-7,1.136461e-7,0.25340272,-9.9475804,6.5902095)" />
    <linearGradient
       x1="22"
       y1="39"
       x2="17"
       y2="37.4375"
       id="linearGradient2928"
       xlink:href="#linearGradient5060"
       gradientUnits="userSpaceOnUse"
       gradientTransform="matrix(0.74999995,0,0,0.43478262,-5.1276295,2.9173914)" />
    <radialGradient
       cx="26.375898"
       cy="12.31301"
       r="8"
       fx="26.375898"
       fy="12.31301"
       id="radialGradient2931"
       xlink:href="#linearGradient6954"
       gradientUnits="userSpaceOnUse"
       gradientTransform="matrix(0.86552039,-0.07102871,0.06760608,0.84907396,-11.038912,-4.204803)" />
    <linearGradient
       x1="30"
       y1="5"
       x2="30"
       y2="44.678879"
       id="linearGradient2933"
       xlink:href="#linearGradient3785"
       gradientUnits="userSpaceOnUse"
       gradientTransform="matrix(0.52770326,0,0,0.53573244,-1.3310981,-1.4043014)" />
    <radialGradient
       cx="24.999998"
       cy="28.659998"
       r="16"
       fx="24.999998"
       fy="28.659998"
       id="radialGradient2939"
       xlink:href="#linearGradient6954"
       gradientUnits="userSpaceOnUse"
       gradientTransform="matrix(0.67742373,0,0,0.19285627,-5.0162555,9.9977318)" />
    <linearGradient
       x1="30"
       y1="25.084745"
       x2="30"
       y2="45"
       id="linearGradient2941"
       xlink:href="#linearGradient3785"
       gradientUnits="userSpaceOnUse"
       gradientTransform="matrix(0.51613236,0,0,0.51667107,-0.98397254,-0.49180897)" />
    <radialGradient
       cx="32"
       cy="41.5"
       r="21"
       fx="32"
       fy="41.5"
       id="radialGradient2944"
       xlink:href="#linearGradient5060"
       gradientUnits="userSpaceOnUse"
       gradientTransform="matrix(0.45238095,0,0,0.14285715,0.02380949,15.071429)" />
    <linearGradient
       x1="22"
       y1="39"
       x2="17"
       y2="37.4375"
       id="linearGradient3722"
       xlink:href="#linearGradient5060"
       gradientUnits="userSpaceOnUse"
       gradientTransform="matrix(-0.74999995,0,0,0.43478262,34.15,2.9173914)" />
    <linearGradient
       x1="30.00001"
       y1="6.333993"
       x2="30.00001"
       y2="24.913183"
       id="linearGradient3734"
       xlink:href="#linearGradient3341"
       gradientUnits="userSpaceOnUse"
       gradientTransform="matrix(0.52770326,0,0,0.53573244,-1.3310981,-1.4043014)" />
    <linearGradient
       x1="29.996229"
       y1="21.440447"
       x2="29.996229"
       y2="43.531425"
       id="linearGradient3756"
       xlink:href="#linearGradient3341"
       gradientUnits="userSpaceOnUse"
       gradientTransform="matrix(0.51613236,0,0,0.51667107,-0.98397254,-0.49180897)" />
    <linearGradient
       id="linearGradient5060-9">
      <stop
         id="stop5062-9"
         style="stop-color:#000000;stop-opacity:1"
         offset="0" />
      <stop
         id="stop5064-1"
         style="stop-color:#000000;stop-opacity:0"
         offset="1" />
    </linearGradient>
    <linearGradient
       x1="29.998489"
       y1="6.7808113"
       x2="30"
       y2="26.2834"
       id="linearGradient4080"
       xlink:href="#linearGradient3341"
       gradientUnits="userSpaceOnUse"
       gradientTransform="matrix(0.33334585,0,0,0.36215328,-2.0003758,2.4813805)" />
    <linearGradient
       x1="29.968306"
       y1="21.68708"
       x2="30.000004"
       y2="43.308842"
       id="linearGradient4118"
       xlink:href="#linearGradient3341"
       gradientUnits="userSpaceOnUse"
       gradientTransform="matrix(0.41935736,0,0,0.41979504,-4.5807222,1.8191637)" />
    <radialGradient
       cx="32"
       cy="41.5"
       r="21"
       fx="32"
       fy="41.5"
       id="radialGradient4148"
       xlink:href="#linearGradient5060-9"
       gradientUnits="userSpaceOnUse"
       gradientTransform="matrix(0.35714286,0,0,0.14285716,-3.9285714,13.072062)" />
    <linearGradient
       x1="22"
       y1="39"
       x2="17"
       y2="37.4375"
       id="linearGradient4168"
       xlink:href="#linearGradient5060"
       gradientUnits="userSpaceOnUse"
       gradientTransform="matrix(0.61956519,0,0,0.35916826,-8.1665637,4.2839318)" />
    <radialGradient
       cx="24.999998"
       cy="28.659998"
       r="16"
       fx="24.999998"
       fy="28.659998"
       id="radialGradient4170"
       xlink:href="#linearGradient6954"
       gradientUnits="userSpaceOnUse"
       gradientTransform="matrix(0.55040653,0,0,0.15669563,-7.8569507,10.341911)" />
    <linearGradient
       x1="30"
       y1="25.084745"
       x2="30"
       y2="45"
       id="linearGradient4172"
       xlink:href="#linearGradient3785"
       gradientUnits="userSpaceOnUse"
       gradientTransform="matrix(0.41935736,0,0,0.41979504,-4.5807222,1.8191637)" />
    <linearGradient
       x1="30"
       y1="5"
       x2="30"
       y2="44.678879"
       id="linearGradient4174"
       xlink:href="#linearGradient3785"
       gradientUnits="userSpaceOnUse"
       gradientTransform="matrix(0.33334585,0,0,0.36215328,-2.0003758,2.4813805)" />
    <radialGradient
       cx="26.375898"
       cy="12.31301"
       r="8"
       fx="26.375898"
       fy="12.31301"
       id="radialGradient4176"
       xlink:href="#linearGradient6954"
       gradientUnits="userSpaceOnUse"
       gradientTransform="matrix(0.54674217,-0.04801515,0.04270621,0.57397107,-8.1327232,0.58825117)" />
  </defs>
  <g
     id="g4150">
    <g
       id="g4140">
      <path
         d="M 15,19.000632 A 7.5,3 0 0 1 4.0027698e-8,19.000632 7.5,3 0 1 1 15,19.000632 z"
         id="path3823-1"
         style="opacity:0.8;fill:url(#radialGradient4148);fill-opacity:1;stroke:none" />
      <path
         d="M 6.513,10.424959 6.457,12.94373 C 5.2363792,13.957484 1.9146379,14.413014 1.9193169,15.4625 l -0.4193572,3.148465 c 0,1.043308 2.9101663,1.889075 6.5000399,1.889075 3.5898714,0 6.5000404,-0.845767 6.5000404,-1.889075 L 14.080681,15.4625 C 14.075781,14.564282 10.735651,13.99322 9.53,12.94373 l -0.043,-2.518771 -2.974,0 z"
         id="path3766-9"
         style="fill:url(#radialGradient4170);fill-opacity:1;stroke:url(#linearGradient4172);stroke-width:0.99991947;stroke-miterlimit:4;stroke-opacity:1;stroke-dasharray:none" />
      <path
         d="m 7.5,11.4375 c -0.08094,0.691654 0.1318657,1.450708 -0.2235148,2.087545 -0.5288217,0.667037 -1.389003,0.904775 -2.1389656,1.229786 -0.7736519,0.277628 -1.5744675,0.510298 -2.2797645,0.944145 0.06985,0.137296 -0.065526,0.621724 -0.078159,0.907996 -0.082782,0.66226 -0.1655648,1.324519 -0.2483472,1.986778 0.6400316,0.191418 1.2404938,0.510821 1.9149171,0.578815 2.3665096,0.469752 4.8219149,0.415371 7.191225,-0.0036 0.601839,-0.114874 1.179595,-0.331813 1.731993,-0.587727 0.184056,-0.31394 -0.04004,-0.704525 -0.03164,-1.0593 C 13.26683,16.94168 13.195915,16.361465 13.125,15.78125 11.736562,14.916552 9.9650672,14.747924 8.7644547,13.570405 8.3409285,12.960694 8.6020186,12.193261 8.4915178,11.512817 8.2293671,11.340917 7.855393,11.476623 7.5405916,11.4375 l -0.029974,0 -0.010617,0 z"
         id="path4094"
         style="fill:none;stroke:url(#linearGradient4118);stroke-width:0.99991947;stroke-miterlimit:4;stroke-opacity:1;stroke-dasharray:none" />
      <path
         d="m 7.9999999,4.4732229 c -1.3807633,0 -2.5000936,1.1349914 -2.5000936,2.5350727 0.010821,0.5181431 0.051513,1.1336776 0.3333444,2.5350729 0.1666733,0.5432295 1.6533164,1.9918425 1.6667298,2.1729185 0.3232373,0.181075 0.8333645,0.181075 1.1667122,0 0,-0.181076 1.3333833,-1.629689 1.5000553,-2.1729185 0.317138,-1.456468 0.316333,-1.9918428 0.333345,-2.5350729 0,-1.4000813 -1.1193297,-2.5350727 -2.5000931,-2.5350727 z"
         id="path3764-3"
         style="fill:url(#radialGradient4176);fill-opacity:1;stroke:url(#linearGradient4174);stroke-width:0.99981266;stroke-miterlimit:4;stroke-opacity:1;stroke-dasharray:none" />
      <path
         d="M 4.8443056,19.8 C 3.3806764,19.088058 4.078603,17.50748 4.22474,16.495652 3.6051749,17.213989 3.9171305,19.221739 2.678,19.221739 3.5040869,19.515513 4.0695756,19.71588 4.8443056,19.8 z"
         id="path3848-9"
         style="opacity:0.5;fill:url(#linearGradient4168);fill-opacity:1;stroke:none" />
      <path
         d="M 8,5.4375 C 7.2011494,5.4149723 6.4714864,6.1276223 6.4745866,6.9273472 6.4622824,7.5772581 6.5980797,8.218564 6.7052603,8.8567444 6.7329944,9.1071067 6.8044753,9.3386069 6.9869607,9.5208284 7.3214047,9.9705041 7.6934675,10.391109 8.0625,10.8125 8.4411508,10.315283 8.8285568,9.824363 9.1875,9.3125 9.3400569,8.4660789 9.5793589,7.6163122 9.5141846,6.748773 9.4152107,6.0221837 8.7407332,5.4168489 8,5.4375 z"
         id="path4066"
         style="fill:none;stroke:url(#linearGradient4080);stroke-width:0.99981266;stroke-miterlimit:4;stroke-opacity:1;stroke-dasharray:none" />
    </g>
    <g
       id="g3758">
      <path
         d="M 24,21 A 9.5,3 0 0 1 5,21 9.5,3 0 1 1 24,21 z"
         id="path3823"
         style="opacity:0.8;fill:url(#radialGradient2944);fill-opacity:1;stroke:none" />
      <path
         d="m 12.177403,10.099947 c 0.23753,1.124653 0.370116,1.975373 0.177421,3.100026 -1.502303,1.247697 -5.3445034,1.80835 -5.3387447,3.100025 l -0.5161321,3.875036 c 0,1.284073 3.5817448,2.325019 8.0000528,2.325019 4.418307,0 8.000053,-1.040946 8.000053,-2.325019 l -0.516134,-3.875036 c -0.0061,-1.105498 -3.870993,-1.808346 -5.354873,-3.100025 -0.126751,-1.043848 -0.02586,-2.056174 0.193549,-3.100026 l -4.645192,0 z"
         id="path3766"
         style="fill:url(#radialGradient2939);fill-opacity:1;stroke:url(#linearGradient2941);stroke-width:0.99989432;stroke-miterlimit:4;stroke-opacity:1;stroke-dasharray:none" />
      <path
         d="m 13.21875,11.09375 c 0.08722,0.856711 0.3354,1.801007 -0.04818,2.615857 -0.642554,0.728465 -1.594602,1.093826 -2.46738,1.472715 C 9.3226847,15.510467 7.7137266,16 7.9252179,16.998373 7.7834779,18.061416 7.641739,19.124458 7.5,20.1875 c 0.3063993,0.160613 1.0809439,0.584904 1.625,0.6875 2.520767,0.666947 5.16785,0.725367 7.754874,0.519516 1.511711,-0.166212 3.088649,-0.352665 4.432626,-1.113266 0.335436,-0.07362 0.107122,-0.316411 0.114936,-0.654915 -0.132062,-1.021278 -0.264124,-2.042557 -0.396186,-3.063835 -0.587648,-0.5027 -1.391296,-0.753519 -2.106391,-1.064577 -1.082782,-0.447299 -2.251468,-0.853003 -3.086912,-1.707994 -0.391617,-0.689558 -0.161473,-1.538743 -0.107324,-2.28649 0.259681,-0.52835 -0.223399,-0.401903 -0.552932,-0.409689 -0.652981,0 -1.305961,0 -1.958941,0 z"
         id="path3742"
         style="fill:none;stroke:url(#linearGradient3756);stroke-width:0.99989432;stroke-miterlimit:4;stroke-opacity:1" />
      <path
         d="m 14.5,1.5422262 c -2.185818,0 -3.957774,1.67899 -3.957774,3.7501272 0.01713,0.7664876 0.08155,1.6770462 0.527701,3.750127 0.263852,0.8035986 2.617283,2.9465296 2.638517,3.2143946 0.511701,0.267865 1.319258,0.267865 1.846964,0 0,-0.267865 2.110813,-2.410796 2.374664,-3.2143946 0.502046,-2.1545496 0.500773,-2.9465283 0.527702,-3.750127 0,-2.0711372 -1.771956,-3.7501272 -3.957774,-3.7501272 z"
         id="path3764"
         style="fill:url(#radialGradient2931);fill-opacity:1;stroke:url(#linearGradient2933);stroke-width:1.08445191;stroke-miterlimit:4;stroke-opacity:1;stroke-dasharray:none" />
      <path
         d="M 10.62237,21.7 C 8.8506083,20.838176 9.6954668,18.924844 9.8723695,17.7 9.1223696,18.569566 9.5000001,21 8,21 c 1,0.355621 1.6845389,0.59817 2.62237,0.7 z"
         id="path3848"
         style="opacity:0.5;fill:url(#linearGradient2928);fill-opacity:1;stroke:none" />
      <path
         d="M 12,13.35048 C 12.366027,14.309818 13.343418,15 14.5,15 c 1.156582,0 2.133972,-0.690182 2.5,-1.64952 l -5,0 z"
         id="path3833"
         style="opacity:0.3;fill:url(#radialGradient2922);fill-opacity:1;stroke:none" />
      <path
         d="m 18.4,21.7 c 1.771762,-0.861824 0.926903,-2.775156 0.750001,-4 C 19.9,18.569566 19.52237,21 21.02237,21 c -1,0.355621 -1.684539,0.59817 -2.62237,0.7 z"
         id="path3720"
         style="opacity:0.5;fill:url(#linearGradient3722);fill-opacity:1;stroke:none" />
      <path
         d="m 14.5,2.53125 c -1.666616,0 -2.9513,1.2303173 -2.96875,2.71875 1.39e-4,0.00624 -1.45e-4,0.024997 0,0.03125 0.01647,0.7081029 0.08609,1.5272795 0.5,3.46875 -0.0051,-0.03667 0.09671,0.2041393 0.3125,0.46875 0.232433,0.2850235 0.566603,0.6083312 0.875,0.9375 0.308397,0.329169 0.598847,0.668975 0.84375,0.9375 0.09435,0.103448 0.171956,0.186905 0.25,0.28125 0.166811,0.03524 0.415249,0.03212 0.625,0 0.06182,-0.08397 0.114751,-0.159431 0.1875,-0.25 0.218248,-0.271707 0.473896,-0.575993 0.75,-0.90625 0.276104,-0.3302573 0.569207,-0.6813941 0.78125,-0.96875 0.197562,-0.2677316 0.307312,-0.503144 0.3125,-0.5 0.460701,-1.9997828 0.473735,-2.6695721 0.5,-3.46875 0,-0.010182 1.19e-4,-0.021091 0,-0.03125 C 17.4513,3.7615673 16.166616,2.53125 14.5,2.53125 z"
         id="path3730"
         style="fill:none;stroke:url(#linearGradient3734);stroke-width:1.08445191;stroke-miterlimit:4;stroke-opacity:1;stroke-dasharray:none" />
    </g>
  </g>
</svg>

<svg xmlns="http://www.w3.org/2000/svg" xmlns:xlink="http://www.w3.org/1999/xlink" viewBox="0 0 24 24"><defs><linearGradient id="c"><stop offset="0" stop-color="#b8b8b8"/><stop offset="1" stop-color="#878787"/></linearGradient><linearGradient id="b"><stop offset="0" stop-color="#f5f5f5"/><stop offset="1" stop-color="#d2d2d2"/></linearGradient><linearGradient id="d"><stop offset="0" stop-color="#fff"/><stop offset="1" stop-color="#fff" stop-opacity="0"/></linearGradient><linearGradient id="a"><stop offset="0"/><stop offset="1" stop-opacity="0"/></linearGradient><radialGradient cx="30" cy="33.188" r="4.688" fx="30" fy="33.188" id="u" xlink:href="#a" gradientUnits="userSpaceOnUse" gradientTransform="matrix(.81492 0 0 .2534 -9.948 6.59)"/><linearGradient x1="22" y1="39" x2="17" y2="37.438" id="t" xlink:href="#a" gradientUnits="userSpaceOnUse" gradientTransform="matrix(.75 0 0 .43478 -5.128 2.917)"/><radialGradient cx="26.376" cy="12.313" r="8" fx="26.376" fy="12.313" id="r" xlink:href="#b" gradientUnits="userSpaceOnUse" gradientTransform="matrix(.86552 -.07103 .0676 .84907 -11.04 -4.205)"/><linearGradient x1="30" y1="5" x2="30" y2="44.679" id="s" xlink:href="#c" gradientUnits="userSpaceOnUse" gradientTransform="matrix(.5277 0 0 .53573 -1.33 -1.404)"/><radialGradient cx="25" cy="28.66" r="16" fx="25" fy="28.66" id="o" xlink:href="#b" gradientUnits="userSpaceOnUse" gradientTransform="matrix(.67742 0 0 .19286 -5.016 9.998)"/><linearGradient x1="30" y1="25.085" x2="30" y2="45" id="p" xlink:href="#c" gradientUnits="userSpaceOnUse" gradientTransform="matrix(.51613 0 0 .51667 -.984 -.492)"/><radialGradient cx="32" cy="41.5" r="21" fx="32" fy="41.5" id="n" xlink:href="#a" gradientUnits="userSpaceOnUse" gradientTransform="matrix(.45238 0 0 .14286 .024 15.07)"/><linearGradient x1="22" y1="39" x2="17" y2="37.438" id="v" xlink:href="#a" gradientUnits="userSpaceOnUse" gradientTransform="matrix(-.75 0 0 .43478 34.15 2.917)"/><linearGradient x1="30" y1="6.334" x2="30" y2="24.913" id="w" xlink:href="#d" gradientUnits="userSpaceOnUse" gradientTransform="matrix(.5277 0 0 .53573 -1.33 -1.404)"/><linearGradient x1="29.996" y1="21.44" x2="29.996" y2="43.531" id="q" xlink:href="#d" gradientUnits="userSpaceOnUse" gradientTransform="matrix(.51613 0 0 .51667 -.984 -.492)"/><linearGradient id="e"><stop offset="0"/><stop offset="1" stop-opacity="0"/></linearGradient><linearGradient x1="29.998" y1="6.781" x2="30" y2="26.283" id="m" xlink:href="#d" gradientUnits="userSpaceOnUse" gradientTransform="matrix(.33335 0 0 .36215 -2 2.48)"/><linearGradient x1="29.968" y1="21.687" x2="30" y2="43.309" id="i" xlink:href="#d" gradientUnits="userSpaceOnUse" gradientTransform="matrix(.41936 0 0 .4198 -4.58 1.82)"/><radialGradient cx="32" cy="41.5" r="21" fx="32" fy="41.5" id="f" xlink:href="#e" gradientUnits="userSpaceOnUse" gradientTransform="matrix(.35714 0 0 .14286 -3.93 13.072)"/><linearGradient x1="22" y1="39" x2="17" y2="37.438" id="l" xlink:href="#a" gradientUnits="userSpaceOnUse" gradientTransform="matrix(.61957 0 0 .35917 -8.167 4.284)"/><radialGradient cx="25" cy="28.66" r="16" fx="25" fy="28.66" id="g" xlink:href="#b" gradientUnits="userSpaceOnUse" gradientTransform="matrix(.5504 0 0 .1567 -7.857 10.342)"/><linearGradient x1="30" y1="25.085" x2="30" y2="45" id="h" xlink:href="#c" gradientUnits="userSpaceOnUse" gradientTransform="matrix(.41936 0 0 .4198 -4.58 1.82)"/><linearGradient x1="30" y1="5" x2="30" y2="44.679" id="k" xlink:href="#c" gradientUnits="userSpaceOnUse" gradientTransform="matrix(.33335 0 0 .36215 -2 2.48)"/><radialGradient cx="26.376" cy="12.313" r="8" fx="26.376" fy="12.313" id="j" xlink:href="#b" gradientUnits="userSpaceOnUse" gradientTransform="matrix(.54674 -.04802 .0427 .57397 -8.133 .588)"/></defs><path d="M15 19a7.5 3 0 0 1-15 0 7.5 3 0 1 1 15 0z" opacity=".8" fill="url(#f)"/><path d="M6.513 10.425l-.056 2.52c-1.22 1.012-4.542 1.468-4.538 2.518L1.5 18.61c0 1.044 2.91 1.89 6.5 1.89s6.5-.846 6.5-1.89l-.42-3.147c-.004-.9-3.344-1.47-4.55-2.52l-.043-2.518H6.513z" fill="url(#g)" stroke="url(#h)"/><path d="M7.5 11.438c-.08.69.132 1.45-.224 2.087-.528.667-1.39.905-2.138 1.23-.774.277-1.575.51-2.28.944.07.13-.066.62-.078.9l-.25 1.986c.64.19 1.242.51 1.916.58 2.367.47 4.822.414 7.19-.005.603-.115 1.18-.332 1.733-.59.18-.312-.04-.702-.04-1.057l-.213-1.74c-1.388-.866-3.16-1.035-4.36-2.213-.424-.61-.163-1.376-.273-2.056-.263-.17-.637-.035-.95-.074H7.5z" fill="none" stroke="url(#i)"/><path d="M8 4.473c-1.38 0-2.5 1.135-2.5 2.535.01.518.05 1.134.333 2.535.167.544 1.654 1.992 1.667 2.173.323.18.833.18 1.167 0 0-.18 1.333-1.63 1.5-2.173.317-1.456.316-1.99.333-2.535 0-1.4-1.12-2.535-2.5-2.535z" fill="url(#j)" stroke="url(#k)"/><path d="M4.844 19.8c-1.463-.712-.765-2.293-.62-3.304-.62.718-.307 2.726-1.546 2.726.826.294 1.392.494 2.166.578z" opacity=".5" fill="url(#l)"/><path d="M8 5.438c-.8-.023-1.53.69-1.525 1.49-.013.65.123 1.29.23 1.93.028.25.1.48.282.663.334.45.706.87 1.075 1.3.38-.5.767-.99 1.126-1.5.152-.846.39-1.696.326-2.563C9.414 6.027 8.74 5.42 8 5.44z" fill="none" stroke="url(#m)"/><path d="M24 21a9.5 3 0 0 1-19 0 9.5 3 0 1 1 19 0z" opacity=".8" fill="url(#n)"/><path d="M12.177 10.1c.238 1.125.37 1.975.178 3.1-1.502 1.248-5.345 1.808-5.34 3.1L6.5 20.175c0 1.284 3.582 2.325 8 2.325s8-1.04 8-2.325l-.516-3.875c-.006-1.106-3.87-1.808-5.355-3.1-.13-1.044-.03-2.056.19-3.1h-4.65z" fill="url(#o)" stroke="url(#p)"/><path d="M13.22 11.094c.086.856.334 1.8-.05 2.616-.642.728-1.594 1.093-2.467 1.472-1.38.328-2.99.818-2.778 1.816l-.425 3.19c.306.16 1.08.584 1.625.687 2.52.667 5.168.725 7.755.52 1.512-.167 3.09-.353 4.433-1.114.335-.07.107-.31.114-.65l-.396-3.06c-.58-.502-1.39-.753-2.1-1.064-1.08-.447-2.25-.853-3.084-1.71-.392-.69-.162-1.54-.107-2.285.26-.53-.224-.4-.553-.41h-1.96z" fill="none" stroke="url(#q)"/><path d="M14.5 1.542c-2.186 0-3.958 1.68-3.958 3.75.017.767.082 1.677.528 3.75.264.804 2.617 2.947 2.638 3.215.512.268 1.32.268 1.847 0 0-.268 2.11-2.41 2.375-3.215.502-2.154.5-2.946.528-3.75 0-2.07-1.772-3.75-3.958-3.75z" fill="url(#r)" stroke="url(#s)" stroke-width="1.084"/><path d="M10.622 21.7c-1.77-.862-.927-2.775-.75-4C9.122 18.57 9.5 21 8 21c1 .356 1.685.598 2.622.7z" opacity=".5" fill="url(#t)"/><path d="M12 13.35c.366.96 1.343 1.65 2.5 1.65s2.134-.69 2.5-1.65h-5z" opacity=".3" fill="url(#u)"/><path d="M18.4 21.7c1.772-.862.927-2.775.75-4 .75.87.372 3.3 1.872 3.3-1 .356-1.684.598-2.622.7z" opacity=".5" fill="url(#v)"/><path d="M14.5 2.53c-1.667 0-2.95 1.232-2.97 2.72v.03c.018.71.087 1.53.5 3.47-.004-.037.098.204.314.47.232.284.566.607.875.936.3.33.59.67.84.938.09.103.17.187.25.28a1.9 1.9 0 0 0 .62 0 6.54 6.54 0 0 1 .187-.25c.22-.27.474-.575.75-.905.276-.34.57-.69.78-.97.2-.27.31-.51.314-.5.46-2 .473-2.67.5-3.47v-.03c-.02-1.49-1.302-2.72-2.97-2.72z" fill="none" stroke="url(#w)" stroke-width="1.084"/></svg>
